icon/ir/password-pass.svg

<svg stroke-width="1.5" viewBox="0 0 24 24" fill="none" xmlns="http://www.w3.org/2000/svg" height="1em" width="1em">
  <path d="M21 13V8C21 6.89543 20.1046 6 19 6H5C3.89543 6 3 6.89543 3 8V14C3 15.1046 3.89543 16 5 16H12" stroke="currentColor" stroke-linecap="round" stroke-linejoin="round"/>
  <path d="M14.5 18.5L16.5 20.5L20.5 16.5" stroke="currentColor" stroke-linecap="round" stroke-linejoin="round"/>
  <path d="M12 11.01L12.01 10.9989" stroke="currentColor" stroke-linecap="round" stroke-linejoin="round"/>
  <path d="M16 11.01L16.01 10.9989" stroke="currentColor" stroke-linecap="round" stroke-linejoin="round"/>
  <path d="M8 11.01L8.01 10.9989" stroke="currentColor" stroke-linecap="round" stroke-linejoin="round"/>
</svg>

<svg width="24" height="24" stroke-width="1.5" fill="none" xmlns="http://www.w3.org/2000/svg"><path d="M21 13V8a2 2 0 0 0-2-2H5a2 2 0 0 0-2 2v6a2 2 0 0 0 2 2h7M14.5 18.5l2 2 4-4M12 11.01l.01-.011M16 11.01l.01-.011M8 11.01l.01-.011" stroke="currentColor" stroke-linecap="round" stroke-linejoin="round"/></svg>
